X: 45
T: Yue xia qing ge
%%abc-version 2.0
%%abcx-abcm2ps-target-version 5.9.1 (29 Sep 2008)
%%abc-creator hum2abc beta
%%abcx-conversion-date 2013/10/02 07:44:27
%%abc-edited-by Helmut Schaffrath
%%humdrum-veritas 2212612751
%%humdrum-veritas-data 1947728471
%%continueall 1
%%barnumbers 0
L: 1/8
M: 2/4
K: Bb
b c' [I:setbarnb 1]| 
d' c' b b | 
c'/ d'/c'3 | 
d' c' d' c' | 
g fg2- | 
g2d d | 
d'> d' d' c' | 
d'> b d g | 
d4 | 
b c' c'3/ b/ | 
g g b g | 
g4 | 
d d' c' d' | 
d' c' d' g | 
d4 | 
d g c'3/ b/ | 
d gg2- | 
g2d d | 
g g b c' | 
b gg2 | 
d b g3/ f/ | 
g b ^g f | 
g4- | 
g2 |]  



